icons/folder_type_chef.svg

<svg xmlns="http://www.w3.org/2000/svg" viewBox="0 0 32 32"><path d="M27.5 5.5h-9.3l-2.1 4.2H4.4v16.8h25.2v-21Zm0 4.2h-8.2l1.1-2.1h7.1Z" style="fill:#558dbf"/><path d="M17.344 23.685a4.575 4.575 0 0 0 3.2 1.33v-1.89a2.578 2.578 0 0 1-1.862-.77ZM22.187 16.3l-.7 1.75a2.828 2.828 0 0 1 1.338 1.12h2.037a4.555 4.555 0 0 0-2.675-2.87Z" style="fill:#3f5364"/><path d="M16.006 20.5a4.585 4.585 0 0 0 .385 1.82l1.725-.77a2.557 2.557 0 0 1-.21-1.05 2.65 2.65 0 0 1 2.632-2.625v-1.89a4.534 4.534 0 0 0-4.532 4.515ZM21.48 22.95l.7 1.75a4.536 4.536 0 0 0 2.7-2.9h-2.035a2.69 2.69 0 0 1-1.365 1.15Z" style="fill:#f18b21"/><path d="M20.535 25.225A4.725 4.725 0 1 1 25.1 19.2h1.827a6.493 6.493 0 1 0 0 2.625H25.1a4.725 4.725 0 0 1-4.565 3.4Z" style="fill:#3f5364"/><path d="M20.535 13.78V12a8.494 8.494 0 0 0-7.935 5.42l1.65.63a6.786 6.786 0 0 1 6.285-4.27ZM20.535 27.22V29a8.53 8.53 0 0 0 8.428-7.175h-1.827a6.7 6.7 0 0 1-6.601 5.395Z" style="fill:#3f5364"/><path d="M27.171 19.2h1.792a8.55 8.55 0 0 0-5.341-6.615l-.63 1.645a6.834 6.834 0 0 1 4.179 4.97ZM13.795 20.5H12a8.521 8.521 0 0 0 5.376 7.91l.665-1.645a6.772 6.772 0 0 1-4.246-6.265Z" style="fill:#f18b21"/><path d="M29.173 19.2h1.792a10.847 10.847 0 0 0-1.512-4.235l-1.512.945a7.846 7.846 0 0 1 1.232 3.29ZM10 20.507a11.055 11.055 0 0 0 .931 4.536l1.736-.714a9.336 9.336 0 0 1-.861-3.825" style="fill:#3f5364"/><path d="M20.535 29.215a8.724 8.724 0 0 1-6.181-2.555l-1.267 1.26A10.384 10.384 0 0 0 20.535 31 10.561 10.561 0 0 0 31 21.8h-1.792a8.789 8.789 0 0 1-8.673 7.415ZM20.535 11.785a8.535 8.535 0 0 1 5.229 1.75l1.092-1.435A10.573 10.573 0 0 0 10.7 16.685l1.687.665a8.764 8.764 0 0 1 8.148-5.565Z" style="fill:#f18b21"/></svg>

<svg xmlns="http://www.w3.org/2000/svg" viewBox="0 0 32 32"><title>folder_type_chef</title><path d="M27.5,5.5H18.2L16.1,9.7H4.4V26.5H29.6V5.5Zm0,4.2H19.3l1.1-2.1h7.1Z" style="fill:#558dbf"/><path d="M17.344,23.685a4.575,4.575,0,0,0,3.2,1.33v-1.89a2.578,2.578,0,0,1-1.862-.77Z" style="fill:#3f5364"/><path d="M22.187,16.3l-.7,1.75a2.828,2.828,0,0,1,1.338,1.12h2.037A4.555,4.555,0,0,0,22.187,16.3Z" style="fill:#3f5364"/><path d="M16.006,20.5a4.585,4.585,0,0,0,.385,1.82l1.725-.77a2.557,2.557,0,0,1-.21-1.05,2.65,2.65,0,0,1,2.632-2.625v-1.89A4.534,4.534,0,0,0,16.006,20.5Z" style="fill:#f18b21"/><path d="M21.48,22.95l.7,1.75a4.536,4.536,0,0,0,2.7-2.9H22.845A2.69,2.69,0,0,1,21.48,22.95Z" style="fill:#f18b21"/><path d="M20.535,25.225A4.725,4.725,0,1,1,25.1,19.2h1.827a6.493,6.493,0,1,0,0,2.625H25.1A4.725,4.725,0,0,1,20.535,25.225Z" style="fill:#3f5364"/><path d="M20.535,13.78h0V12h0A8.494,8.494,0,0,0,12.6,17.42l1.65.63A6.786,6.786,0,0,1,20.535,13.78Z" style="fill:#3f5364"/><path d="M20.535,27.22V29a8.53,8.53,0,0,0,8.428-7.175H27.136A6.7,6.7,0,0,1,20.535,27.22Z" style="fill:#3f5364"/><path d="M27.171,19.2h1.792a8.55,8.55,0,0,0-5.341-6.615l-.63,1.645A6.834,6.834,0,0,1,27.171,19.2Z" style="fill:#f18b21"/><path d="M13.795,20.5H12a8.521,8.521,0,0,0,5.376,7.91l.665-1.645A6.772,6.772,0,0,1,13.795,20.5Z" style="fill:#f18b21"/><path d="M29.173,19.2h1.792a10.847,10.847,0,0,0-1.512-4.235l-1.512.945A7.846,7.846,0,0,1,29.173,19.2Z" style="fill:#3f5364"/><path d="M10,20.507a11.055,11.055,0,0,0,.931,4.536l1.736-.714a9.336,9.336,0,0,1-.861-3.825" style="fill:#3f5364"/><path d="M20.535,29.215a8.724,8.724,0,0,1-6.181-2.555l-1.267,1.26A10.384,10.384,0,0,0,20.535,31,10.561,10.561,0,0,0,31,21.8H29.208A8.789,8.789,0,0,1,20.535,29.215Z" style="fill:#f18b21"/><path d="M20.535,11.785a8.535,8.535,0,0,1,5.229,1.75L26.856,12.1A10.573,10.573,0,0,0,10.7,16.685l1.687.665A8.764,8.764,0,0,1,20.535,11.785Z" style="fill:#f18b21"/></svg>
